X: 18265
T: Humours Of Nickey, The
R: reel
M: 4/4
K: Edorian
|:e{f}ed|~B2 AF BE ~E2|BEFA B~fed|BdAd BEFE|DEFA BAFA|
~B2 AF BE ~E2|BEFA Bcde|fdec dBAF|BFAF E:|
FGA|Be{f}ed BAFA|BEFE BEFA|Be{f}ed Bfed|BdAG FDFA|
Be{f}ed BAFA|BEFE EFGA|Bcde fdec|dBAF EFGA|
Be{f}ed BA (3ABc|d2 fd adfd|(3efg fg efdB|AGFD EFGA|
Be{f}eg fdec|dBAF DEFA|~B2 AF BEFA|BFAF E||

